X: 11074
T: Duchess Tree, The
R: reel
M: 4/4
K: Amajor
AB|:c2 c2 c2 Bc|d2 F2 F2 GF|1 E2 A2 e2 c2|B6AB:|2 EF GAc2 B2|A6 Bc||
d2 d2 d2 AB|c2 c2 c2 AF|E2 A2 e2 c2|B6AB|
c2 c2 c2 Bc|d2 F2 F2 GF|EF GA c2 B2|A6||

